X:1
T:D minor Jeremiah Ingalls, 1805
T:Joseph Hart, 1759 Come and Welcome to Jesus Christ 87. 87. 88.
T:Invitation
T:Transcribed from Ingalls' Christian Harmony, 1805.
%%score [ 1 2 3 ]
L:1/8
Q:1/4=110
M:4/4
K:F
V:1 treble nm="Tr." snm="Tr."
V:2 treble-8 nm="T." snm="T."
V:3 bass nm="B." snm="B."
V:1
"^1. Come,  ye  sinners,  poor and  wretched,     Weak and wounded, sick and sore!          Je–sus  ready  stands  to  save  you,         Full of  pity  joined  with power. \n2. Ho!      ye  needy,   come  and  welcome,     God's  free  bounty  glo – ri – fy.             True belief,  and true re–pen–tance,        Every grace that brings us nigh." d4 A4 | %1
 B2 B2 A2 A2 | A2 A2 z4 | d2 c2 A2 d2 | ^c2 =B2 A4- | A4 z4 | d2 d2 A2 A2 | AB AG A2 A2 | %8
 z4 d2 c2 | A2 A2 B2 A2 | A8 | %11
"^1. He  is   a – ble,           He   is      a –  ble,          He  is   a – ble,             He      is        wil   –  ling,        doubt ______    no ________  more! \n2. Without  money,         Without   money,            Without money,            Come  to       Je   –   sus          Christ ______    and _______    buy." d2 d2 A2 A2 | %12
 z4 e2 e2 | ^c2 A2 z4 | A2 A2 G2 G2 | z4 A2 A2 |[Q:1/4=90]"^(Slowing)" d2 AG[Q:1/4=75] FGAB | %17
 (^c6- cB) | A8 |] %19
V:2
"^3.  Let not conscience let  you   lin – ger,        Nor of  fit–ness fond–ly  dream;              All  the  fitness  he   re  –  qui – reth        Is  to  feel your  need  of  him.\n4.  Come ye  wea–ry,   hea – vy  la  – den,      Bruised  and  mangled  by the fall;            If  you  tar–ry  till   you're  bet– ter,        You  will  never  come  at  all." A4 d4 | %1
 d2 d2 cd e^c | d2 d2 z4 | f2 e2 d2 f2 | e2 d2 ^c4- | c4 z4 | A2 A2 d2 d2 | cd e^c d2 d2 | %8
 z4 f2 e2 | d2 f2 gf e2 | d8 | %11
"^3. This he gives you,      This he gives you,        This he gives you:           'Tis     the      Spi   –  rit's       ri       –        –         sing  _____    beam.\n4. Not the righteous,     Not the righteous,       Not the righteous;           Sin – ners     Je    –   sus       came ________    to   _____     call." A2 A2 d2 d2 | %12
 z4 ^c2 c2 | e2 e2 z4 | f2 f2 e2 e2 | z4 ed de | fe d^c (d3 e/f/) | (e6- e d/c/) | d8 |] %19
V:3
"^5. View him groveling  in   the  gar – den,         Lo!  your  Maker  prostrate  lies!          On  the  bloody  tree  be  –  hold  him:      Hear  him  cry,  before  he  dies:\n6. Lo! The  incarnate  God   a–scen– ded,         Pleads  the  merit  of  his  blood;            Venture on him, ven–ture   whol – ly;       Let  no  o–ther trust   in–trude.\n7. Saints and  angels,  joined  in  con–cert,        Sing  the  praises  of  the  Lamb;            While  the  blissful seats of  hea– ven       Sweet–ly  echo  with  his name." D,4 D,4 | %1
 G,2 G,2 A,2 A,2 | D,2 D,2 z4 | A,2 G,2 F,2 D,2 | E,2 E,2 A,,4- | A,,4 z4 | D,2 D,2 D,2 D,2 | %7
 A,2 A,2 D,2 D,2 | z4 A,2 G,2 | F,2 D,2 G,2 A,2 | D,8 | %11
"^5. It  is  finished!              It    is     finished!          It   is    finished!         Sin  –  ner,      will      this        not                           suf          –          fice?\n6. None but Jesus,            None  but  Jesus,          None but Jesus          Can      do       help – less         sin       –        –       ners                    good.\n7. Hal–le–lu–jah!            Ha l–le – lu – jah!       Hal – le –lu–jah!       Sin  – ners     here     may       sing                          the                     same." D,2 D,2 D,2 D,2 | %12
 z4 A,2 A,2 | %13
"^________________________________________________________________________________\nEdited by B. C. Johnston, 2017\n   1. Measures 17-18, \nTenor\n: grace sixteenth-notes following converted to regular sixteenth-notes.\n   2. Measure 18, Treble: grace eighth-note following converted to regular eighth-note." A,2 A,2 z4 | %14
 F,2 F,2 C,2 C,2 | z4 D,2 D,2 | D,2 D,2 D,4 | [A,,A,]8 | D,8 |] %19

